X:9
T:Bernadette's reel
R:Reel
O:Cape Breton
C:Jerry Holland
S:Jerry Holland's collection of fiddle tunes
B:Jerry Holland's collection of fiddle tunes
Z:Transcription, chords:Mike Long
M:C|
L:1/8
K:C
B,|\
"Am"A,2 AG {G}A2 AB,|"Am"A,AAc "G"BGGA|"Am"A,AAG {G}A2 (Ac)|\
[1 "G"BGGe dGGA:|[2 "G"BGGe dGGd|]\
"C"cdef "tr"gedc|
"G"BGGE "F"GFFA|"C"cdef gece|"G"dGAB "C"~c2 cG|"C"cdef "tr"gedc|\
"G"BGGE "F"GFFA|"C"cdef gece|"G"dGAB "C"c2 c|]
